dist/img/logo-basket.svg

<svg width="18" height="17" viewBox="0 0 18 17" fill="none" xmlns="http://www.w3.org/2000/svg">
<path d="M16.6875 12.8571H1.3125L1 15.6518C0.982143 15.8125 1.03571 15.9732 1.14286 16.0982C1.25 16.2143 1.41071 16.2857 1.57143 16.2857H16.4286C16.5893 16.2857 16.75 16.2143 16.8571 16.0982C16.9643 15.9732 17.0179 15.8125 17 15.6518L16.6875 12.8571ZM15.8571 5.36607C15.8214 5.08036 15.5804 4.85714 15.2857 4.85714H13V6C13 6.63393 12.4911 7.14286 11.8571 7.14286C11.2232 7.14286 10.7143 6.63393 10.7143 6V4.85714H7.28571V6C7.28571 6.63393 6.77679 7.14286 6.14286 7.14286C5.50893 7.14286 5 6.63393 5 6V4.85714H2.71429C2.41964 4.85714 2.17857 5.08036 2.14286 5.36607L1.375 12.2857H16.625L15.8571 5.36607ZM12.4286 3.71428C12.4286 1.82143 10.8929 0.285713 9 0.285713C7.10714 0.285713 5.57143 1.82143 5.57143 3.71428V6C5.57143 6.3125 5.83036 6.57143 6.14286 6.57143C6.45536 6.57143 6.71429 6.3125 6.71429 6V3.71428C6.71429 2.45536 7.74107 1.42857 9 1.42857C10.2589 1.42857 11.2857 2.45536 11.2857 3.71428V6C11.2857 6.3125 11.5446 6.57143 11.8571 6.57143C12.1696 6.57143 12.4286 6.3125 12.4286 6V3.71428Z" fill="black"/>
</svg>

<svg width="18" height="17" viewBox="0 0 18 17" fill="none" xmlns="http://www.w3.org/2000/svg"><path d="M16.688 12.857H1.313L1 15.652a.588.588 0 00.143.446.595.595 0 00.428.188H16.43c.16 0 .321-.072.428-.188a.588.588 0 00.143-.446l-.313-2.795zm-.83-7.49a.578.578 0 00-.572-.51H13V6a1.14 1.14 0 01-1.143 1.143A1.14 1.14 0 0110.714 6V4.857H7.286V6a1.14 1.14 0 01-1.143 1.143A1.14 1.14 0 015 6V4.857H2.714a.578.578 0 00-.571.51l-.768 6.919h15.25l-.768-6.92zm-3.43-1.653a3.43 3.43 0 00-6.857 0V6c0 .313.26.571.572.571A.575.575 0 006.714 6V3.714A2.29 2.29 0 019 1.43a2.29 2.29 0 012.286 2.285V6c0 .313.259.571.571.571A.575.575 0 0012.43 6V3.714z" fill="#000"/></svg>
